X:1051
T:Irish Lullaby #2
C:Joe Buchanan's Scottish Tome - Page 635.1
I:635 1
Z:Carl Allison
R:Waltz
L:1/4
M:3/4
K:C
"C"E2 D | "C7"C2 D | "C"E G2- | G3 | "F"A2 ^G | A2 B | "C"c3- | c3 |
"C"c2 B | "F"c2 A | "C"G E2- | E3 | "A7"A2 D | "D7"D2 E | "G"D3- | ^D3 |
"C"E2 D | "C7"C2 D | "C"E G2- | G3 | "F"A2 ^G | A2 B | "C"c3- | c3 |
"C"c2 B | "F"c2 A | "C"G E2- | E G ^G | "D7"A2 c | "G7"c2 d | "C"c3- | c2 |]

